modules/stroke-7/icons/mouse.svg

<?xml version="1.0" encoding="utf-8"?>
<!-- Generated by IcoMoon.io -->
<!DOCTYPE svg PUBLIC "-//W3C//DTD SVG 1.1//EN" "http://www.w3.org/Graphics/SVG/1.1/DTD/svg11.dtd">
<svg version="1.1" xmlns="http://www.w3.org/2000/svg" xmlns:xlink="http://www.w3.org/1999/xlink" width="32" height="32" viewBox="0 0 32 32">
<g id="icomoon-ignore">
</g>
<path d="M16.533 8.562v-1.647c0-0.487 1.029-1.131 1.855-1.649 1.184-0.741 2.41-1.509 2.41-2.627v-2.633h-1.066v2.633c0 0.527-1.058 1.19-1.909 1.723-1.158 0.725-2.356 1.475-2.356 2.552v1.647c-4.167 0.268-7.464 3.626-7.464 7.739v7.927c0 4.288 3.58 7.765 7.997 7.765s7.997-3.477 7.997-7.765v-7.927c0-4.114-3.297-7.472-7.464-7.739zM22.931 16.301v0.765h-6.398v-7.438c3.572 0.265 6.398 3.153 6.398 6.673zM9.069 16.301c0-3.52 2.825-6.408 6.398-6.673v7.438h-6.398v-0.765zM16 30.927c-3.821 0-6.931-3.005-6.931-6.699v-6.096h13.861v6.096c0 3.694-3.109 6.699-6.931 6.699z" fill="#000000"></path>
</svg>

<svg xmlns="http://www.w3.org/2000/svg" width="32" height="32"><path d="M16.533 8.562V6.915c0-.487 1.029-1.131 1.855-1.649 1.184-.741 2.41-1.509 2.41-2.627V.006h-1.066v2.633c0 .527-1.058 1.19-1.909 1.723-1.158.725-2.356 1.475-2.356 2.552v1.647c-4.167.268-7.464 3.626-7.464 7.739v7.927c0 4.288 3.58 7.765 7.997 7.765s7.997-3.477 7.997-7.765V16.3c0-4.114-3.297-7.472-7.464-7.739zm6.398 7.739v.765h-6.398V9.628c3.572.265 6.398 3.153 6.398 6.673zm-13.862 0c0-3.52 2.825-6.408 6.398-6.673v7.438H9.069v-.765zM16 30.927c-3.821 0-6.931-3.005-6.931-6.699v-6.096H22.93v6.096c0 3.694-3.109 6.699-6.931 6.699z"/></svg>
